X:360
T:The Boys of the Lake
T:(The Merry Blacksmith)
B:Joyce, P. W.; "Old Irish Folk Music and Songs"
N:See #356 for history
R:reel
A:Kildare
O:Irish
L:1/8
M:C
Z:Allan Garvin
K:D
A|\
d2 dA BAFA|AFdA BAFA|ABde f2 ed|Beed Beef|
d3 A BAFA|AFdA BAFA|ABde f2 ec|dBAF D3||f|
ac'ag fafe|d3 A BAFA|ABde f2 ed|Beed Beef|
ac'ag fafe|d3 A BAFA|ABde f2 ec|dBAF D3||
